P3
# Hottop generated-original signal orb reference; no third-party pixels.
8 8
255
8 16 36   8 16 36   12 24 48   18 36 62   18 36 62   12 24 48   8 16 36   8 16 36
8 16 36   18 36 62   44 58 70   120 88 38   120 88 38   44 58 70   18 36 62   8 16 36
12 24 48   44 58 70   180 118 36   246 170 54   246 170 54   180 118 36   44 58 70   12 24 48
18 36 62   120 88 38   246 170 54   255 222 138   255 222 138   246 170 54   120 88 38   18 36 62
18 36 62   120 88 38   246 170 54   255 222 138   255 222 138   246 170 54   120 88 38   18 36 62
12 24 48   44 58 70   180 118 36   246 170 54   246 170 54   180 118 36   44 58 70   12 24 48
8 16 36   18 36 62   44 58 70   120 88 38   120 88 38   44 58 70   18 36 62   8 16 36
8 16 36   8 16 36   12 24 48   18 36 62   18 36 62   12 24 48   8 16 36   8 16 36
